!!!OTL: Koenig von Mailand.
!!!OTL-incipit: Ich sachs eins mals den lichten morgensterne:
!!!ARE: Europa, Mitteleuropa, Deutschland
!!!YOR: 3, S. 234
!!    1480 Handschrift Glogau
!!!SCT: Q1067D
!!!TXL: @@DE
!!!YEM: Copyright 1995, estate of Helmut Schaffrath.
**kern	**text
*ICvox	*
!! Irregular meter.
*MX	*
*k[b-]	*
*d:	*
!LO:TX:a:t=Glogauer Ldb. Nr. 47	!
{4d	Jch
=1	=1
(4f	ſachs
4a)	.
4g	eins
=:	=:
2a	mals
4a	den
=2	=2
8b-	lich-
8a	-ten
4a	morgen-
4g	.
=:	=:
8b-L	-ſter-
8aJ	.
4f}	-ne
{4g	bei
=3	=3
4a	meinem
8fL	.
8aJ	.
8gL	.
8fJ	bu-
=:	=:
[8d	-len
8d]	.
4a	ſo
8g	wär
8f	.
=4	=4
4d	ich
4f	alʒeit
4d	ger-
=:	=:
4c}	-ne.
{4d	Es
=5	=5
2f	kan
4g	und
=:	=:
(4a	mag
4f)	.
4d	doch
=6	=6
4a	lei-
8gL	-der
8aJ	.
=:	=:
8fL	nicht
8dJ	.
4e	geſein.
=7	=7
2d;}	.
==	==
!!!AGN: ???
!! Melodievergleich zu Q0067, anderes Lied.
!!!ONB: ESAC (Essen Associative Code) Database: BALLADE
!!!AMT: irregular
!!!AIN: vox
!!!EED: Helmut Schaffrath
!!!EEV: 1.0
!!!source: Deutsche Volkslieder mit ihren Melodien. Herausgegeben vom Deutschen Volksliedarchiv. Dritter Band Balladen. Berlin 1954.
!!!page: 234
!!!ENC: Anna Maria Matuszewska
!!!EEV: 2025/02/21
*-	*-
